X:1
T:Joy to the World! The Lord Is Come
T:Text: Isaac Watts, 1719; based on Psalm 98 Tune: Lowell Mason, 1848
T:CM with repeats ANTIOCH www.hymnary.org/text/joy_to_the_world_the_lord_is_come
T:This hymn is in the public domain. You may freely use this score for personal and congregational worship. If you reproduce the score, please credit Hymnary.org as the source. 
T:Joy to the World! The Lord Is Come
T:This hymn is in the public domain. You may freely use this score for personal and congregational worship. If you reproduce the score, please credit Hymnary.org as the source. 
Z:This hymn is in the public domain. You may freely use this score for personal and congregational worship. If you reproduce the score, please credit Hymnary.org as the source.
%%score ( 1 2 ) ( 3 4 )
L:1/8
M:2/4
K:D
V:1 treble nm="SOPRANO ALTO" snm="S. A."
V:2 treble 
V:3 bass nm="TENOR BASS" snm="T. B."
V:4 bass 
V:1
"^D""^1""^2""^3""^4" d2 c>B | A3 G | F2"^A7" E2 |"^D" D3 A |"^G" B3 B |"^A" c3 c |"^D" d3 d | %7
w: Joy to the|world! the|Lord is|come: let|earth re-|ceive her|King. Let|
w: Joy to the|earth! the|Sav- ior|reigns; let|all their|songs em-|ploy, while|
w: No more let|sin and|sor- row|grow nor|thorns in-|fest the|ground; he|
w: He rules the|world with|truth and|grace, and|makes the|na- tions|prove the|
 dc BA | A>G Fd | dc BA | A>G FF | FF FF/G/ | A3 G/F/ |"^A" EE EE/F/ |1 G3 F/E/ |"^D" (D d2) B | %16
w: ev- * ery *|heart * * pre-|pare * him *|room, * * and|heaven and na- ture *|sing, and *|heaven and na- ture *|sing, and *|heaven, _ and|
w: fields * and *|floods, * * rocks,|hills, * and *|plains * * re-|peat the sound- ing *|joy, re- *|peat the sound- ing *|joy, re- *|peat, * re-|
w: comes * to *|make * * his|bless- * ings *|flow * * far|as the curse is *|found, far *|as the curse is *|found, far *|as, * far|
w: glo- * ries *|of * * his|right- * eous- *|ness * * and|won- ders of his *|love, and *|won- ders of his *|love, and *|won- * ders,|
 A>G FG |"^D/A" F2"^A7" E2 |"^D" D4 |] %19
w: heaven * * and|na- ture|sing.|
w: peat * * the|sound- ing|joy.|
w: as * * the|curse is|found.|
w: won- * * ders|of his|love.|
V:2
 F2 A>G | F3 E | D2 C2 | D3 D | G3 G | E3 E | F3 F | FA GF | F>E DF | FA GF | F>E DD | DD DD/E/ | %12
 F3 E/D/ | CC CC/D/ |1 E3 D/C/ | (D F2) G | F>E DE | D2 C2 | D4 |] %19
V:3
 D2 D>D | D3 B, | A,3 G, | F,3 D | D3 D | A,3 A, | A,3 A, | A,2 D2 | D3 A, | A,2 D2 | D3 z | %11
w: |||||||||||
 z2 z A, | A,A, A,A, | A,4- |1 A,3 A,/G,/ | (F, A,2) D | D3 B, | A,2 A,G, | F,4 |] %19
w: and|heaven and na- ture|sing,||||||
V:4
 D,2 D,>D, | D,3 G,, | A,,2 A,,2 | D,3 F, | G,3 G, | A,3 A, | D,3 D, | D,2 D,2 | D,3 D, | D,2 D,2 | %10
w: ||||||||||
 D,3 x | x3 D, | D,D, D,D, | A,3 A,, |1 A,,A,, A,,A,, | D,3 D, | D,3 G,, | A,,2 A,,2 | D,4 |] %19
w: |||* and|heaven and na- ture|sing, *||||

